svg/fluentui-system-icons/ic_fluent_gift_card_add_20_filled.svg

<svg width="20" height="20" viewBox="0 0 20 20" fill="none" xmlns="http://www.w3.org/2000/svg">
<path d="M7 2H4.75C3.23122 2 2 3.23122 2 4.75V7H4.26756C4.09739 6.70583 4 6.36429 4 6C4 4.89543 4.89543 4 6 4C6.36429 4 6.70583 4.09739 7 4.26756V2ZM2 8V11.25C2 12.7688 3.23122 14 4.75 14H7V8.70711L5.35355 10.3536C5.15829 10.5488 4.84171 10.5488 4.64645 10.3536C4.45118 10.1583 4.45118 9.84171 4.64645 9.64645L6.29289 8H2ZM9.02242 14H8V8.70711L9.64645 10.3536C9.84171 10.5488 10.1583 10.5488 10.3536 10.3536C10.5488 10.1583 10.5488 9.84171 10.3536 9.64645L8.70711 8H18V10.2572C17.0491 9.47182 15.8296 9 14.5 9C11.631 9 9.27504 11.1967 9.02242 14ZM18 7H10.7324C10.9026 6.70583 11 6.36429 11 6C11 4.89543 10.1046 4 9 4C8.63571 4 8.29417 4.09739 8 4.26756V2H15.25C16.7688 2 18 3.23122 18 4.75V7ZM8 6V7H9C9.55228 7 10 6.55228 10 6C10 5.44772 9.55228 5 9 5C8.44772 5 8 5.44772 8 6ZM7 7H6C5.44772 7 5 6.55228 5 6C5 5.44772 5.44772 5 6 5C6.55228 5 7 5.44772 7 6V7ZM19 14.5C19 16.9853 16.9853 19 14.5 19C12.0147 19 10 16.9853 10 14.5C10 12.0147 12.0147 10 14.5 10C16.9853 10 19 12.0147 19 14.5ZM15 12.5C15 12.2239 14.7761 12 14.5 12C14.2239 12 14 12.2239 14 12.5V14H12.5C12.2239 14 12 14.2239 12 14.5C12 14.7761 12.2239 15 12.5 15H14V16.5C14 16.7761 14.2239 17 14.5 17C14.7761 17 15 16.7761 15 16.5V15H16.5C16.7761 15 17 14.7761 17 14.5C17 14.2239 16.7761 14 16.5 14H15V12.5Z" fill="#212121"/>
</svg>

<svg xmlns="http://www.w3.org/2000/svg" width="20" height="20"><path d="M7 2H4.75A2.75 2.75 0 0 0 2 4.75V7h2.268A2 2 0 0 1 7 4.268V2ZM2 8v3.25A2.75 2.75 0 0 0 4.75 14H7V8.707l-1.646 1.647a.5.5 0 0 1-.708-.708L6.293 8H2Zm7.022 6H8V8.707l1.646 1.647a.5.5 0 0 0 .708-.708L8.707 8H18v2.257A5.5 5.5 0 0 0 9.022 14ZM18 7h-7.268A2 2 0 0 0 8 4.268V2h7.25A2.75 2.75 0 0 1 18 4.75V7ZM8 6v1h1a1 1 0 1 0-1-1ZM7 7H6a1 1 0 1 1 1-1v1Zm12 7.5a4.5 4.5 0 1 1-9 0 4.5 4.5 0 0 1 9 0Zm-4-2a.5.5 0 0 0-1 0V14h-1.5a.5.5 0 0 0 0 1H14v1.5a.5.5 0 0 0 1 0V15h1.5a.5.5 0 0 0 0-1H15v-1.5Z"/></svg>
